src/pages/Home/images/heart-group.svg

<svg width="39" height="23" viewBox="0 0 39 23" fill="none" xmlns="http://www.w3.org/2000/svg">
<path d="M36.792 0.166402C35.8715 0.48303 33.0715 2.14532 31.9016 3.03584C31.192 3.60973 31.0002 3.86699 31.0002 4.32214C31.0002 5.21265 31.7674 5.23244 32.8605 4.34193C33.34 3.96593 34.6057 3.07542 35.6605 2.38279C37.2907 1.2746 38.0002 0.621554 38.0002 0.205981C38.0002 -0.0512791 37.4249 -0.0710683 36.792 0.166402Z" fill="#BD1B7F"/>
<path d="M23.782 1.29027C21.6441 2.33211 19.8087 4.18849 18.6388 6.53738L17.9128 7.99596L17.2472 7.1246C15.8958 5.36293 14.1613 4.66205 12.6687 5.24928C11.5998 5.66601 11.0754 6.15852 10.5711 7.2572C9.56267 9.47348 9.90555 12.0686 11.4788 14.266C12.6082 15.8193 18.4775 21.2558 19.0221 21.2558C19.2439 21.2558 19.5263 21.4263 19.6473 21.6347C19.97 22.184 20.7365 22.1082 21.3214 21.4452C21.6037 21.1421 22.0676 20.2708 22.3702 19.5131C22.6727 18.7554 23.8022 16.2928 24.851 14.0576C27.5537 8.31798 27.9571 7.1246 27.9974 5.15456C28.0176 3.82858 27.9369 3.3929 27.5537 2.65413C27.2915 2.14268 26.8477 1.57441 26.5654 1.36604C25.9401 0.911413 24.6291 0.873528 23.782 1.29027ZM25.3956 2.42682C26.0006 2.65413 26.3839 3.65809 26.3637 5.07879C26.3233 6.61315 25.8595 8.10961 24.6695 10.3259C24.2056 11.1594 23.4996 12.618 23.0559 13.5651C21.8659 16.1792 19.5666 20.4602 19.3448 20.4792C19.2439 20.4981 18.4573 19.7593 17.6304 18.869C12.4469 13.281 11.7813 12.3338 11.6199 10.2691C11.5393 9.18934 11.5998 8.82943 12.0233 7.97702C13.173 5.62813 14.9882 6.15852 16.7026 9.34089C17.6102 11.0268 17.9531 11.4056 18.538 11.4056C19.0422 11.4056 19.4456 10.7426 19.4456 9.92811C19.4658 7.56028 21.8659 3.67704 23.9232 2.71096C24.8913 2.27528 24.9115 2.25634 25.3956 2.42682Z" fill="#BD1B7F"/>
<path d="M0.25279 7.30731C-0.0900356 7.64072 -0.0900356 7.66637 0.290881 7.92284C0.805119 8.30754 3.77627 9 4.82379 9C5.81418 9 6.29032 8.43577 5.81418 7.7946C5.29994 7.07649 0.881302 6.69179 0.25279 7.30731Z" fill="#BD1B7F"/>
<path d="M33.7602 9.16621C30.8602 9.3301 30.0002 9.59644 30.0002 10.293C30.0002 11.1535 30.8002 11.1945 34.9002 10.6003C38.0602 10.1291 39.0002 9.86278 39.0002 9.47352C39.0002 8.92036 38.5402 8.89987 33.7602 9.16621Z" fill="#BD1B7F"/>
<path d="M3.68687 13.7666C1.83182 14.4823 1.00024 15.0746 1.00024 15.6668C1.00024 16.1111 1.83182 16.1111 3.431 15.6668C4.36918 15.3954 5.60588 15.0992 6.16026 15.0252C8.24986 14.7044 8.71895 13.1003 6.73597 13.0015C6.13894 12.9769 5.03018 13.2483 3.68687 13.7666Z" fill="#BD1B7F"/>
<path d="M29.3269 15.2056C28.8879 15.5645 28.8879 15.6841 29.3478 16.0088C29.7031 16.2823 33.4443 17 34.4684 17C35.6806 17 34.6774 16.043 32.9009 15.4961C31.1452 14.9664 29.7658 14.8468 29.3269 15.2056Z" fill="#BD1B7F"/>
<path d="M8.02861 20.2482C7.11847 20.9362 6.25167 21.7006 6.12165 21.949C5.88329 22.4267 6.01331 23 6.36002 23C6.70674 23 10.6073 20.3056 10.8674 19.8852C11.0407 19.5985 11.0407 19.3883 10.8891 19.2354C10.434 18.7386 9.67553 19.0061 8.02861 20.2482Z" fill="#BD1B7F"/>
</svg>

<svg width="39" height="23" fill="none" xmlns="http://www.w3.org/2000/svg"><path d="M36.792.166c-.92.317-3.72 1.98-4.89 2.87-.71.574-.902.831-.902 1.286 0 .89.767.91 1.86.02.48-.376 1.746-1.267 2.8-1.96C37.29 1.276 38 .623 38 .207c0-.257-.575-.277-1.208-.04ZM23.782 1.29c-2.138 1.042-3.973 2.898-5.143 5.247l-.726 1.459-.666-.871c-1.351-1.762-3.086-2.463-4.578-1.876-1.07.417-1.594.91-2.098 2.008-1.008 2.216-.665 4.812.908 7.009 1.13 1.553 6.998 6.99 7.543 6.99.222 0 .504.17.625.379.323.549 1.09.473 1.674-.19.283-.303.747-1.174 1.05-1.932.302-.758 1.431-3.22 2.48-5.455 2.703-5.74 3.106-6.933 3.146-8.903.02-1.326-.06-1.762-.443-2.5-.262-.512-.706-1.08-.989-1.289-.625-.455-1.936-.492-2.783-.076Zm1.614 1.137c.605.227.988 1.231.968 2.652-.04 1.534-.505 3.03-1.695 5.247-.463.833-1.17 2.292-1.613 3.24-1.19 2.613-3.49 6.894-3.711 6.913-.101.02-.888-.72-1.715-1.61-5.183-5.588-5.849-6.535-6.01-8.6-.08-1.08-.02-1.44.403-2.292 1.15-2.349 2.965-1.818 4.68 1.364.907 1.686 1.25 2.065 1.835 2.065.504 0 .908-.663.908-1.478.02-2.368 2.42-6.251 4.477-7.217.968-.436.989-.455 1.473-.284ZM.253 7.307c-.343.334-.343.36.038.616C.805 8.308 3.776 9 4.824 9c.99 0 1.466-.564.99-1.205C5.3 7.076.881 6.692.253 7.307ZM33.76 9.166c-2.9.164-3.76.43-3.76 1.127 0 .86.8.902 4.9.307 3.16-.47 4.1-.737 4.1-1.126 0-.554-.46-.574-5.24-.308ZM3.687 13.767C1.832 14.482 1 15.075 1 15.667c0 .444.832.444 2.431 0 .938-.272 2.175-.568 2.73-.642 2.089-.32 2.558-1.925.575-2.024-.597-.024-1.706.247-3.05.766ZM29.327 15.206c-.44.359-.44.478.02.803.356.273 4.097.991 5.121.991 1.213 0 .21-.957-1.567-1.504-1.756-.53-3.135-.65-3.574-.29ZM8.029 20.248c-.91.688-1.777 1.453-1.907 1.701-.239.478-.109 1.051.238 1.051s4.247-2.694 4.507-3.115c.174-.287.174-.497.022-.65-.455-.496-1.213-.229-2.86 1.013Z" fill="#BD1B7F"/></svg>
